X: 184
T:The Seagull
M:4/4
R:jig
F:http://blackrosetheband.googlepages.com/ABCTUNES.ABC May 2009
C:Composer: Donald MacLeod
S:Source: The Angus Sessions Podcast
K:A
e|:a=ga fae|fec Bce|a=ga fae|fec Ace|
a=ga fae|fec Bce|afe fae|fec Ace:||
|:fcc cBB|fec Bce|fcc cBB|fec Ace|
fcc cBB|fec Bce|afe fae|fec Ace:||
|:zfe Bce|fec Bce|zfe Bce|fec Ace|
zfe Bce|fec Bce|afe fae|fec Ace:||
|:aec Bce|fec Bce|aec Bce|fec Ace|
aec Bce|fec Bce|afe fae|fec Ace:||

